src/components/Icon/utils/svgsOptimized/sun.svg

<svg width="24" height="24" viewBox="0 0 24 24"  xmlns="http://www.w3.org/2000/svg">
<path d="M11.4333 5.76667V4.06667C11.4333 3.91638 11.493 3.77224 11.5993 3.66597C11.7056 3.5597 11.8497 3.5 12 3.5C12.1503 3.5 12.2944 3.5597 12.4007 3.66597C12.507 3.77224 12.5667 3.91638 12.5667 4.06667V5.76667C12.5667 5.91696 12.507 6.06109 12.4007 6.16736C12.2944 6.27363 12.1503 6.33333 12 6.33333C11.8497 6.33333 11.7056 6.27363 11.5993 6.16736C11.493 6.06109 11.4333 5.91696 11.4333 5.76667ZM16.5333 12C16.5333 12.8966 16.2675 13.7731 15.7693 14.5186C15.2712 15.2641 14.5632 15.8451 13.7348 16.1883C12.9065 16.5314 11.995 16.6211 11.1156 16.4462C10.2362 16.2713 9.42845 15.8395 8.79445 15.2056C8.16045 14.5716 7.72869 13.7638 7.55377 12.8844C7.37885 12.005 7.46863 11.0935 7.81175 10.2652C8.15486 9.43681 8.73591 8.7288 9.48141 8.23067C10.2269 7.73254 11.1034 7.46667 12 7.46667C13.2019 7.46798 14.3542 7.94602 15.2041 8.7959C16.054 9.64578 16.532 10.7981 16.5333 12ZM15.4 12C15.4 11.3275 15.2006 10.6702 14.827 10.1111C14.4534 9.55193 13.9224 9.11615 13.3011 8.85881C12.6799 8.60147 11.9962 8.53414 11.3367 8.66533C10.6772 8.79652 10.0713 9.12034 9.59584 9.59584C9.12034 10.0713 8.79652 10.6772 8.66533 11.3367C8.53414 11.9962 8.60147 12.6799 8.85881 13.3011C9.11615 13.9224 9.55193 14.4534 10.1111 14.827C10.6702 15.2006 11.3275 15.4 12 15.4C12.9014 15.3991 13.7657 15.0405 14.4031 14.4031C15.0405 13.7657 15.3991 12.9014 15.4 12ZM7.06575 7.86758C7.17208 7.97391 7.31629 8.03365 7.46667 8.03365C7.61704 8.03365 7.76125 7.97391 7.86758 7.86758C7.97391 7.76125 8.03365 7.61704 8.03365 7.46667C8.03365 7.31629 7.97391 7.17208 7.86758 7.06575L6.73425 5.93242C6.62792 5.82609 6.48371 5.76635 6.33333 5.76635C6.18296 5.76635 6.03875 5.82609 5.93242 5.93242C5.82609 6.03875 5.76635 6.18296 5.76635 6.33333C5.76635 6.48371 5.82609 6.62792 5.93242 6.73425L7.06575 7.86758ZM7.06575 16.1324L5.93242 17.2657C5.82609 17.3721 5.76635 17.5163 5.76635 17.6667C5.76635 17.817 5.82609 17.9613 5.93242 18.0676C6.03875 18.1739 6.18296 18.2336 6.33333 18.2336C6.48371 18.2336 6.62792 18.1739 6.73425 18.0676L7.86758 16.9342C7.92023 16.8816 7.962 16.8191 7.99049 16.7503C8.01898 16.6815 8.03365 16.6078 8.03365 16.5333C8.03365 16.4589 8.01898 16.3851 7.99049 16.3164C7.962 16.2476 7.92023 16.1851 7.86758 16.1324C7.81493 16.0798 7.75243 16.038 7.68364 16.0095C7.61485 15.981 7.54112 15.9664 7.46667 15.9664C7.39221 15.9664 7.31848 15.981 7.24969 16.0095C7.1809 16.038 7.1184 16.0798 7.06575 16.1324ZM16.5333 8.03333C16.6078 8.03339 16.6815 8.01878 16.7503 7.99034C16.8191 7.9619 16.8816 7.92019 16.9342 7.86758L18.0676 6.73425C18.1739 6.62792 18.2336 6.48371 18.2336 6.33333C18.2336 6.18296 18.1739 6.03875 18.0676 5.93242C17.9613 5.82609 17.817 5.76635 17.6667 5.76635C17.5163 5.76635 17.3721 5.82609 17.2657 5.93242L16.1324 7.06575C16.0531 7.145 15.999 7.24601 15.9771 7.35599C15.9552 7.46597 15.9665 7.57998 16.0094 7.68358C16.0523 7.78718 16.125 7.87571 16.2183 7.93797C16.3115 8.00024 16.4212 8.03342 16.5333 8.03333ZM16.9342 16.1324C16.8279 16.0261 16.6837 15.9664 16.5333 15.9664C16.383 15.9664 16.2387 16.0261 16.1324 16.1324C16.0261 16.2387 15.9664 16.383 15.9664 16.5333C15.9664 16.6837 16.0261 16.8279 16.1324 16.9342L17.2657 18.0676C17.3184 18.1202 17.3809 18.162 17.4497 18.1905C17.5185 18.219 17.5922 18.2336 17.6667 18.2336C17.7411 18.2336 17.8149 18.219 17.8836 18.1905C17.9524 18.162 18.0149 18.1202 18.0676 18.0676C18.1202 18.0149 18.162 17.9524 18.1905 17.8836C18.219 17.8149 18.2336 17.7411 18.2336 17.6667C18.2336 17.5922 18.219 17.5185 18.1905 17.4497C18.162 17.3809 18.1202 17.3184 18.0676 17.2657L16.9342 16.1324ZM6.33333 12C6.33333 11.8497 6.27363 11.7056 6.16736 11.5993C6.06109 11.493 5.91696 11.4333 5.76667 11.4333H4.06667C3.91638 11.4333 3.77224 11.493 3.66597 11.5993C3.5597 11.7056 3.5 11.8497 3.5 12C3.5 12.1503 3.5597 12.2944 3.66597 12.4007C3.77224 12.507 3.91638 12.5667 4.06667 12.5667H5.76667C5.91696 12.5667 6.06109 12.507 6.16736 12.4007C6.27363 12.2944 6.33333 12.1503 6.33333 12ZM12 17.6667C11.8497 17.6667 11.7056 17.7264 11.5993 17.8326C11.493 17.9389 11.4333 18.083 11.4333 18.2333V19.9333C11.4333 20.0836 11.493 20.2278 11.5993 20.334C11.7056 20.4403 11.8497 20.5 12 20.5C12.1503 20.5 12.2944 20.4403 12.4007 20.334C12.507 20.2278 12.5667 20.0836 12.5667 19.9333V18.2333C12.5667 18.083 12.507 17.9389 12.4007 17.8326C12.2944 17.7264 12.1503 17.6667 12 17.6667ZM19.9333 11.4333H18.2333C18.083 11.4333 17.9389 11.493 17.8326 11.5993C17.7264 11.7056 17.6667 11.8497 17.6667 12C17.6667 12.1503 17.7264 12.2944 17.8326 12.4007C17.9389 12.507 18.083 12.5667 18.2333 12.5667H19.9333C20.0836 12.5667 20.2278 12.507 20.334 12.4007C20.4403 12.2944 20.5 12.1503 20.5 12C20.5 11.8497 20.4403 11.7056 20.334 11.5993C20.2278 11.493 20.0836 11.4333 19.9333 11.4333Z" />
</svg>

<?xml version="1.0" encoding="utf-8"?><svg width="24" height="24" xmlns="http://www.w3.org/2000/svg" viewBox="0 0 24 24"><path d="M11.433 5.767v-1.7a.567.567 0 1 1 1.134 0v1.7a.567.567 0 1 1-1.134 0Zm5.1 6.233a4.533 4.533 0 1 1-9.065 0 4.533 4.533 0 0 1 9.065 0ZM15.4 12a3.4 3.4 0 1 0-6.8 0 3.4 3.4 0 0 0 6.8 0ZM7.066 7.868a.567.567 0 1 0 .802-.802L6.734 5.932a.567.567 0 1 0-.802.802l1.134 1.134Zm0 8.264-1.134 1.134a.567.567 0 0 0 .802.802l1.134-1.134a.566.566 0 1 0-.802-.802Zm9.467-8.099a.567.567 0 0 0 .401-.165l1.134-1.134a.567.567 0 0 0-.802-.802l-1.134 1.134a.567.567 0 0 0 .401.967Zm.401 8.1a.567.567 0 0 0-.802.801l1.134 1.134a.569.569 0 0 0 .968-.401.567.567 0 0 0-.166-.401l-1.134-1.134ZM6.334 12a.567.567 0 0 0-.567-.567h-1.7a.567.567 0 1 0 0 1.134h1.7A.567.567 0 0 0 6.333 12ZM12 17.667a.567.567 0 0 0-.567.566v1.7a.566.566 0 1 0 1.134 0v-1.7a.567.567 0 0 0-.567-.566Zm7.933-6.234h-1.7a.567.567 0 0 0 0 1.134h1.7a.566.566 0 1 0 0-1.134Z"/></svg>
